X: 4095
M: C|
L: 1/8
K: G
|:\
cAdF G/G/G G2 ::\
dgbg dgbg | dfaf dfaf |\
dgbg dgbg | fadf g/g/g g2 ::\
dcBA GFED | cBAG FEDC |
dgba gfed | cfag fedc |\


